X:1
T:Agli amori
T:André Vierendeels
T:Source : Melody from "Corona di Sacre Canzoni o Laude spirituali" (Tenor voice). Firenze---Eredi Francesco Orofri---1689. Editor : André Vierendeels ( 03/12/17) Notes : Original clef : C4, other voices supplied editorially Original note values have been quartered Music compiled by Matteo Coferati
T:Agli amori
T:©
T:©
T:©
C:André Vierendeels
Z:©
%%score [ 1 2 3 ]
L:1/8
Q:1/4=118
M:3/4
K:C
V:1 treble nm="Soprano" snm="S"
V:2 treble nm="Alto" snm="A"
V:3 treble-8 nm="Tenor" snm="T"
V:1
"^1)" G4 G2 | F3 G A2 | A2 G3 G | G4 A2 | c2 B2 A2 | A2 G2 A2 | A2 G3 G | A4 E2 | E2 D4 | A4 c2 | %10
w: A- gli'a-|mo- ri'a- gli'a-|mo- ri'a- gli'a-|mo- ri,|al- la ce-|le- st'e su-|per- na bon-|ta- te,|O, _|O, bell'|
w: Al- la|lu- ce'al- la|lu- ce,al- la|lu- ce,|a- la bel-|lez- ze'im- mor-|ta- li'e gra-|di- te,|O, _|O, bell'|
 c2 d2 e2 | c2 d2 B2 | c6 | B2 G2 G2 | F3 G A2 | A2 G3 G | G4 A2 | c2 B2 A2 | A2 G3 A | A2 G3 G | %20
w: al- me tor-|na _ _|te,|su su mi-|ran- do gli'e|ter- ni splen-|do- ri,|il sen em-|pien- do di|di- vi te-|
w: al- me ve-|ni- * *|te,|su su mi-|ran- do quel|bel che ri-|lu- ce,|là do- ve|splen- de Gie-|su ve- ro|
 A4 E2 | E2 D4 | E4 c2 | c2 d2 e2 | c2 d2 B2 | c6 | z2 c2 c2 | B2 A3 A | B2 c2 c2 | A2 c2 c2 | %30
w: so- ri,|su su|su bell'|al- me tor-|na- * *|te|a gli'a-|mo- ri'a Gie-|su, all' e-|ter- na bon|
w: du- ce,|su su|su bell'|al- me tor-|na- * *|te|a gli'a-|mo- ri'a Gie-|su, all' e-|ter- na bon-|
 c4 B2 | c6 |] %32
w: ta- *|te.|
w: ta- *|te.|
V:2
"^2)""^1)" D4 D2 | D3 D E2 | E2 E3 D | E4 E2 | E2 G2 F2 | E2 E2 F2 | C2 D3 E | E2 F2 C2 | C4 B,2 | %9
w: A- gli'a-|mo- ri'a- gli'a-|mo- ri'a- gli'a-|mo- ri,|al- la ce-|le- ste su-|per- na bon-|ta- * te,|O, _|
w: Al gio-|ir' al gio-|ir' al gio-|i- re,|al- la so-|a- v'e gio-|con- da qui-|e- * te,|O, _|
 C4 G2 | A2 A2 B2 | G2 F4 | E6 | D2 D2 D2 | D3 D E2 | E2 E3 D | E4 E2 | E2 G2 F2 | E2 E2 F2 | %19
w: O bell'|al- me tor-|na- *|te,|su su mi-|ran- do gli'e-|ter- ni splen-|do- ri,|il sen em-|pien- do di|
w: O, bell'|al- me cor-|re- *|te,|su su can-|tan do le|glo- rie di-|vi- ne,|l'e- ter- na|pa- ce dall'|
 C2 D3 E | E2 F2 C2 | C4 B,2 | C4 G2 | A2 A2 c2 | G2 G4 | E6 | G4 G2 | G2 F3 F | D2 G2 G2 | %29
w: di- vi te-|so- * ri,|su su|su bell'|al- me tor-|na- *|te,|a- gli'a-|mo- ri'a Gie-|su, all' e-|
w: al- to con|fi- * ne,|su si|su bell'|al- me tor-|na- *|te,|a- gli'a-|mo- ri'a Gie-|su, all' e-|
 F2 F2 G2 | G4 G2 | E6 |] %32
w: ter- na bon-|ta- *|te.|
w: ter- na bon|ta- *|te.|
V:3
"^3)""^1)""^4)" z2 G2 G2 | A3 B c2 | c2 c3 B | c4 c2 | e2 d3 d | c2 c3 c | c2 B3 c | A4 A2 | G6 | %9
w: A- gli'a-|mo- ri'a- gli'a-|mo- ri'a- gli'a-|mo- ri,|al- la ce-|le- st'e su-|per- na bon-|ta- te,|O,|
w: Al- la|glo- ri- a'l-|la glo- ri-|a'l- la|glo- ri- a'l|fe- li- ce|go- der sen-|za duo-|lo,|
 F4 e2 | f2 f2 e2 | e2 d4 | c6 | G2 G2 G2 | A3 B c2 | c2 c2 B2 | c4 c2 | e2 d2 d2 | c2 c2 c2 | %19
w: O bell'|al- me tor-|na- *|te,|su su mi-|ran- do gli'e-|ter- ni splen-|do- ri,|il sen em-|pien- do di|
w: O bell'|al- me or'|a vo-|lo,|su su te-|nen- do si|dol- ce me-|mo- ria,|lie- te can-|tan- do vit-|
 c2 B3 c | A4 A2 | G4 G2 | c4 e2 | f2 f2 e2 | e2 d4 | c6 | z2 e2 e2 | d2 d3 c | B2 e2 e2 | %29
w: di- vi te-|so- ri,|su su|su bell'|al- me tor-|na- *|te|a gli'a-|mo- ri'a Gie-|su, all' e-|
w: to- ria, vit-|to- ria,|su su|su bell'|al- me tor-|na- *|te|a gli'a-|mo- ri'a Gie-|su, all' e-|
 f2 f2 e2 | e2 d4 | c6 |] %32
w: ter- na bon|ta- *|te.|
w: ter- na non-|ta- *|te.|

